img/money.svg

<svg width="43" height="41" viewBox="0 0 43 41" fill="none" xmlns="http://www.w3.org/2000/svg">
<path d="M29.3828 26.2943C28.4114 26.2943 27.6211 25.6103 27.6211 24.7695C27.6211 23.9287 28.4114 23.2447 29.3828 23.2447C30.3542 23.2447 31.1445 23.9287 31.1445 24.7695C31.1445 25.2117 31.5031 25.5703 31.9453 25.5703C32.3875 25.5703 32.7461 25.2117 32.7461 24.7695C32.7461 23.3021 31.6527 22.0683 30.1836 21.7334V21.3169C30.1836 20.8747 29.825 20.5161 29.3828 20.5161C28.9406 20.5161 28.582 20.8747 28.582 21.3169V21.7334C27.1129 22.0683 26.0195 23.3021 26.0195 24.7695C26.0195 26.4934 27.5283 27.8959 29.3828 27.8959C30.3542 27.8959 31.1445 28.5799 31.1445 29.4207C31.1445 30.2615 30.3542 30.9455 29.3828 30.9455C28.4114 30.9455 27.6211 30.2615 27.6211 29.4207C27.6211 28.9785 27.2625 28.6199 26.8203 28.6199C26.3781 28.6199 26.0195 28.9785 26.0195 29.4207C26.0195 30.8881 27.1129 32.122 28.582 32.4569V32.8028C28.582 33.245 28.9406 33.6036 29.3828 33.6036C29.825 33.6036 30.1836 33.245 30.1836 32.8028V32.4569C31.6527 32.122 32.7461 30.8881 32.7461 29.4207C32.7461 27.6968 31.2373 26.2943 29.3828 26.2943Z" fill="white"/>
<path d="M38.1535 21.531C37.1075 19.901 35.6337 18.5967 33.8916 17.7592C33.4929 17.5675 33.0145 17.7354 32.8229 18.134C32.6313 18.5326 32.799 19.011 33.1977 19.2026C36.2335 20.662 38.195 23.7801 38.195 27.1465C38.195 28.5869 37.84 30.0154 37.1683 31.2778C36.9606 31.6681 37.1087 32.1531 37.4991 32.3608C37.6189 32.4246 37.7477 32.4548 37.8746 32.4548C38.1611 32.4548 38.4382 32.3006 38.5822 32.03C39.3767 30.537 39.7966 28.8483 39.7966 27.1465C39.7966 25.1477 39.2284 23.2059 38.1535 21.531Z" fill="white"/>
<path d="M30.6418 16.7364L30.5879 16.7363C30.1457 16.7363 29.7871 17.0948 29.7871 17.5371C29.7871 17.9794 30.1457 18.3379 30.5879 18.3379L30.6343 18.338C30.6355 18.338 30.6367 18.338 30.6381 18.338C31.0786 18.338 31.4367 17.9819 31.4388 17.5409C31.4408 17.0987 31.084 16.7385 30.6418 16.7364Z" fill="white"/>
<path d="M25.5754 35.0903C22.5396 33.6309 20.5781 30.5127 20.5781 27.1465C20.5781 25.706 20.9332 24.2775 21.6048 23.0152C21.8125 22.6248 21.6645 22.1399 21.274 21.9321C20.8837 21.7244 20.3986 21.8725 20.1909 22.2629C19.3965 23.756 18.9766 25.4447 18.9766 27.1465C18.9766 29.1452 19.5447 31.087 20.6196 32.762C21.6657 34.3919 23.1394 35.6962 24.8815 36.5338C24.9934 36.5876 25.1116 36.613 25.2279 36.613C25.5261 36.613 25.8123 36.4457 25.9502 36.159C26.1417 35.7604 25.974 35.2819 25.5754 35.0903Z" fill="white"/>
<path d="M28.1857 35.955L28.1394 35.9548C27.6951 35.954 27.337 36.3095 27.335 36.7519C27.3329 37.1941 27.6899 37.5543 28.1321 37.5564L28.1857 37.5566C28.6279 37.5566 28.9865 37.198 28.9865 36.7558C28.9865 36.3136 28.6279 35.955 28.1857 35.955Z" fill="white"/>
<path d="M33.0229 14.0271C32.9255 13.7949 32.8061 13.576 32.6671 13.373H34.7519C36.783 13.373 38.4355 11.7205 38.4355 9.68944C38.4355 7.65834 36.783 6.00585 34.7519 6.00585H28.3392C28.7469 5.41311 28.9863 4.69601 28.9863 3.92382C28.9863 1.89272 27.3338 0.240234 25.3027 0.240234H5.68359C3.65249 0.240234 2 1.89272 2 3.92382C2 5.95492 3.65249 7.60741 5.68359 7.60741H12.0962C11.6886 8.20015 11.4492 8.91724 11.4492 9.68944C11.4492 10.4616 11.6885 11.1787 12.0962 11.7715H10.0078C7.9767 11.7715 6.32421 13.424 6.32421 15.455C6.32421 16.6215 6.86986 17.6625 7.71877 18.3379C6.86986 19.0132 6.32421 20.0542 6.32421 21.2207C6.32421 22.3872 6.86986 23.4281 7.71877 24.1035C6.86986 24.7788 6.32421 25.8198 6.32421 26.9863C6.32421 28.1528 6.86986 29.1937 7.71877 29.8691C6.86986 30.5445 6.32421 31.5854 6.32421 32.7519C6.32421 34.783 7.9767 36.4355 10.0078 36.4355H19.445C21.9311 39.0946 25.4678 40.7598 29.3867 40.7598C36.8931 40.7598 43 34.6529 43 27.1465C43 20.8991 38.7695 15.6219 33.0229 14.0271ZM34.7519 7.60741C35.9 7.60741 36.8339 8.54144 36.8339 9.68944C36.8339 10.8374 35.9 11.7715 34.7519 11.7715H29.6269H15.1328C13.9847 11.7715 13.0508 10.8374 13.0508 9.68944C13.0508 8.54144 13.9847 7.60741 15.1328 7.60741H34.7519ZM5.68359 6.00585C4.53551 6.00585 3.60156 5.07182 3.60156 3.92382C3.60156 2.77582 4.53551 1.84179 5.68359 1.84179H25.3027C26.4508 1.84179 27.3847 2.77582 27.3847 3.92382C27.3847 5.07182 26.4508 6.00585 25.3027 6.00585H5.68359ZM10.0078 13.373H29.6269C29.9495 13.373 30.2583 13.448 30.5354 13.5822C30.1566 13.5504 29.7737 13.5333 29.3867 13.5333C25.6275 13.5333 22.2194 15.0651 19.7534 17.5371H10.0078C8.8598 17.5371 7.92577 16.603 7.92577 15.455C7.92577 14.3071 8.8598 13.373 10.0078 13.373ZM10.0078 19.1386H18.3852C17.4761 20.3841 16.7733 21.7888 16.3269 23.3027H10.0078C8.85972 23.3027 7.92577 22.3687 7.92577 21.2207C7.92577 20.0727 8.85972 19.1386 10.0078 19.1386ZM10.0078 24.9043H15.9592C15.8377 25.634 15.7735 26.3828 15.7735 27.1465C15.7735 27.7988 15.8207 28.4403 15.9098 29.0683H10.0078C8.85972 29.0683 7.92577 28.1344 7.92577 26.9863C7.92577 25.8382 8.85972 24.9043 10.0078 24.9043ZM10.0078 34.8339C8.85972 34.8339 7.92577 33.9 7.92577 32.7519C7.92577 31.6038 8.85972 30.6699 10.0078 30.6699H16.2367C16.6408 32.1764 17.2972 33.5804 18.1581 34.8339H10.0078ZM29.3867 39.1582C22.7635 39.1582 17.3751 33.7698 17.3751 27.1465C17.3751 20.5233 22.7635 15.1348 29.3867 15.1348C36.01 15.1348 41.3984 20.5233 41.3984 27.1465C41.3984 33.7698 36.01 39.1582 29.3867 39.1582Z" fill="white"/>
<path d="M27.3828 26.2943C26.4114 26.2943 25.6211 25.6103 25.6211 24.7695C25.6211 23.9287 26.4114 23.2447 27.3828 23.2447C28.3542 23.2447 29.1445 23.9287 29.1445 24.7695C29.1445 25.2117 29.5031 25.5703 29.9453 25.5703C30.3875 25.5703 30.7461 25.2117 30.7461 24.7695C30.7461 23.3021 29.6527 22.0683 28.1836 21.7334V21.3169C28.1836 20.8747 27.825 20.5161 27.3828 20.5161C26.9406 20.5161 26.582 20.8747 26.582 21.3169V21.7334C25.1129 22.0683 24.0195 23.3021 24.0195 24.7695C24.0195 26.4934 25.5283 27.8959 27.3828 27.8959C28.3542 27.8959 29.1445 28.5799 29.1445 29.4207C29.1445 30.2615 28.3542 30.9455 27.3828 30.9455C26.4114 30.9455 25.6211 30.2615 25.6211 29.4207C25.6211 28.9785 25.2625 28.6199 24.8203 28.6199C24.3781 28.6199 24.0195 28.9785 24.0195 29.4207C24.0195 30.8881 25.1129 32.122 26.582 32.4569V32.8028C26.582 33.245 26.9406 33.6036 27.3828 33.6036C27.825 33.6036 28.1836 33.245 28.1836 32.8028V32.4569C29.6527 32.122 30.7461 30.8881 30.7461 29.4207C30.7461 27.6968 29.2373 26.2943 27.3828 26.2943Z" fill="#333333"/>
<path d="M36.1535 21.531C35.1075 19.901 33.6337 18.5967 31.8916 17.7592C31.4929 17.5675 31.0145 17.7354 30.8229 18.134C30.6313 18.5326 30.799 19.011 31.1977 19.2026C34.2335 20.662 36.195 23.7801 36.195 27.1465C36.195 28.5869 35.84 30.0154 35.1683 31.2778C34.9606 31.6681 35.1087 32.1531 35.4991 32.3608C35.6189 32.4246 35.7477 32.4548 35.8746 32.4548C36.1611 32.4548 36.4382 32.3006 36.5822 32.03C37.3767 30.537 37.7966 28.8483 37.7966 27.1465C37.7966 25.1477 37.2284 23.2059 36.1535 21.531Z" fill="#333333"/>
<path d="M28.6418 16.7364L28.5879 16.7363C28.1457 16.7363 27.7871 17.0948 27.7871 17.5371C27.7871 17.9794 28.1457 18.3379 28.5879 18.3379L28.6343 18.338C28.6355 18.338 28.6367 18.338 28.6381 18.338C29.0786 18.338 29.4367 17.9819 29.4388 17.5409C29.4408 17.0987 29.084 16.7385 28.6418 16.7364Z" fill="#333333"/>
<path d="M23.5754 35.0903C20.5396 33.6309 18.5781 30.5127 18.5781 27.1465C18.5781 25.706 18.9332 24.2775 19.6048 23.0152C19.8125 22.6248 19.6645 22.1399 19.274 21.9321C18.8837 21.7244 18.3986 21.8725 18.1909 22.2629C17.3965 23.756 16.9766 25.4447 16.9766 27.1465C16.9766 29.1452 17.5447 31.087 18.6196 32.762C19.6657 34.3919 21.1394 35.6962 22.8815 36.5338C22.9934 36.5876 23.1116 36.613 23.2279 36.613C23.5261 36.613 23.8123 36.4457 23.9502 36.159C24.1417 35.7604 23.974 35.2819 23.5754 35.0903Z" fill="#333333"/>
<path d="M26.1857 35.955L26.1394 35.9548C25.6951 35.954 25.337 36.3095 25.335 36.7519C25.3329 37.1941 25.6899 37.5543 26.1321 37.5564L26.1857 37.5566C26.6279 37.5566 26.9865 37.198 26.9865 36.7558C26.9865 36.3136 26.6279 35.955 26.1857 35.955Z" fill="#333333"/>
<path d="M31.0229 14.0271C30.9255 13.7949 30.8061 13.576 30.6671 13.373H32.7519C34.783 13.373 36.4355 11.7205 36.4355 9.68944C36.4355 7.65834 34.783 6.00585 32.7519 6.00585H26.3392C26.7469 5.41311 26.9863 4.69601 26.9863 3.92382C26.9863 1.89272 25.3338 0.240234 23.3027 0.240234H3.68359C1.65249 0.240234 0 1.89272 0 3.92382C0 5.95492 1.65249 7.60741 3.68359 7.60741H10.0962C9.68855 8.20015 9.4492 8.91724 9.4492 9.68944C9.4492 10.4616 9.68847 11.1787 10.0962 11.7715H8.0078C5.9767 11.7715 4.32421 13.424 4.32421 15.455C4.32421 16.6215 4.86986 17.6625 5.71877 18.3379C4.86986 19.0132 4.32421 20.0542 4.32421 21.2207C4.32421 22.3872 4.86986 23.4281 5.71877 24.1035C4.86986 24.7788 4.32421 25.8198 4.32421 26.9863C4.32421 28.1528 4.86986 29.1937 5.71877 29.8691C4.86986 30.5445 4.32421 31.5854 4.32421 32.7519C4.32421 34.783 5.9767 36.4355 8.0078 36.4355H17.445C19.9311 39.0946 23.4678 40.7598 27.3867 40.7598C34.8931 40.7598 41 34.6529 41 27.1465C41 20.8991 36.7695 15.6219 31.0229 14.0271ZM32.7519 7.60741C33.9 7.60741 34.8339 8.54144 34.8339 9.68944C34.8339 10.8374 33.9 11.7715 32.7519 11.7715H27.6269H13.1328C11.9847 11.7715 11.0508 10.8374 11.0508 9.68944C11.0508 8.54144 11.9847 7.60741 13.1328 7.60741H32.7519ZM3.68359 6.00585C2.53551 6.00585 1.60156 5.07182 1.60156 3.92382C1.60156 2.77582 2.53551 1.84179 3.68359 1.84179H23.3027C24.4508 1.84179 25.3847 2.77582 25.3847 3.92382C25.3847 5.07182 24.4508 6.00585 23.3027 6.00585H3.68359ZM8.0078 13.373H27.6269C27.9495 13.373 28.2583 13.448 28.5354 13.5822C28.1566 13.5504 27.7737 13.5333 27.3867 13.5333C23.6275 13.5333 20.2194 15.0651 17.7534 17.5371H8.0078C6.8598 17.5371 5.92577 16.603 5.92577 15.455C5.92577 14.3071 6.8598 13.373 8.0078 13.373ZM8.0078 19.1386H16.3852C15.4761 20.3841 14.7733 21.7888 14.3269 23.3027H8.0078C6.85972 23.3027 5.92577 22.3687 5.92577 21.2207C5.92577 20.0727 6.85972 19.1386 8.0078 19.1386ZM8.0078 24.9043H13.9592C13.8377 25.634 13.7735 26.3828 13.7735 27.1465C13.7735 27.7988 13.8207 28.4403 13.9098 29.0683H8.0078C6.85972 29.0683 5.92577 28.1344 5.92577 26.9863C5.92577 25.8382 6.85972 24.9043 8.0078 24.9043ZM8.0078 34.8339C6.85972 34.8339 5.92577 33.9 5.92577 32.7519C5.92577 31.6038 6.85972 30.6699 8.0078 30.6699H14.2367C14.6408 32.1764 15.2972 33.5804 16.1581 34.8339H8.0078ZM27.3867 39.1582C20.7635 39.1582 15.3751 33.7698 15.3751 27.1465C15.3751 20.5233 20.7635 15.1348 27.3867 15.1348C34.01 15.1348 39.3984 20.5233 39.3984 27.1465C39.3984 33.7698 34.01 39.1582 27.3867 39.1582Z" fill="#333333"/>
</svg>

<svg width="43" height="41" fill="none" xmlns="http://www.w3.org/2000/svg"><path d="M29.383 26.294c-.972 0-1.762-.684-1.762-1.524 0-.841.79-1.525 1.762-1.525.971 0 1.762.684 1.762 1.524a.8.8 0 001.601 0c0-1.467-1.093-2.7-2.562-3.036v-.416a.8.8 0 00-1.602 0v.416c-1.47.335-2.563 1.57-2.563 3.037 0 1.723 1.51 3.126 3.364 3.126.971 0 1.762.684 1.762 1.525 0 .84-.79 1.524-1.762 1.524s-1.762-.683-1.762-1.524a.8.8 0 00-1.601 0c0 1.467 1.093 2.701 2.562 3.036v.346a.8.8 0 001.602 0v-.346c1.469-.335 2.562-1.569 2.562-3.036 0-1.724-1.509-3.127-3.363-3.127zm8.771-4.763a10.434 10.434 0 00-4.262-3.772.8.8 0 10-.694 1.444 8.862 8.862 0 014.997 7.944c0 1.44-.355 2.868-1.027 4.13a.8.8 0 001.414.753 10.43 10.43 0 001.215-4.884c0-1.998-.569-3.94-1.643-5.615zm-7.512-4.795h-.054a.8.8 0 000 1.602h.05a.8.8 0 00.004-1.602zM25.575 35.09a8.862 8.862 0 01-4.997-7.944c0-1.44.355-2.869 1.027-4.13a.8.8 0 00-1.414-.753 10.432 10.432 0 00-1.214 4.883c0 2 .568 3.941 1.643 5.616a10.436 10.436 0 004.261 3.772.798.798 0 001.07-.375.8.8 0 00-.376-1.069zm2.611.865h-.047a.8.8 0 10-.007 1.601h.054a.8.8 0 000-1.601z" fill="#fff"/><path d="M33.023 14.027a3.67 3.67 0 00-.356-.654h2.085a3.688 3.688 0 003.683-3.684 3.688 3.688 0 00-3.683-3.683h-6.413a3.66 3.66 0 00.647-2.082A3.688 3.688 0 0025.303.24H5.683A3.688 3.688 0 002 3.924a3.688 3.688 0 003.684 3.683h6.412a3.663 3.663 0 00-.647 2.082c0 .773.24 1.49.647 2.082h-2.088a3.688 3.688 0 00-3.684 3.684c0 1.167.546 2.208 1.395 2.883a3.677 3.677 0 000 5.765 3.677 3.677 0 000 5.766 3.678 3.678 0 00-1.395 2.883 3.688 3.688 0 003.684 3.683h9.437a13.577 13.577 0 009.942 4.325C36.893 40.76 43 34.653 43 27.147c0-6.248-4.23-11.525-9.977-13.12zm1.729-6.42c1.148 0 2.082.934 2.082 2.082a2.084 2.084 0 01-2.082 2.082H15.133A2.084 2.084 0 0113.05 9.69c0-1.148.934-2.082 2.082-2.082h19.619zM5.684 6.006a2.084 2.084 0 01-2.082-2.082c0-1.148.934-2.082 2.082-2.082h19.619c1.148 0 2.082.934 2.082 2.082a2.084 2.084 0 01-2.082 2.082H5.683zm4.324 7.367h19.619c.323 0 .631.075.908.21a13.571 13.571 0 00-10.782 3.955h-9.745a2.084 2.084 0 01-2.082-2.083c0-1.148.934-2.082 2.082-2.082zm0 5.766h8.377a13.575 13.575 0 00-2.058 4.164h-6.32a2.084 2.084 0 01-2.081-2.082c0-1.148.934-2.082 2.082-2.082zm0 5.765h5.951a13.642 13.642 0 00-.05 4.164h-5.901a2.084 2.084 0 01-2.082-2.082c0-1.148.934-2.082 2.082-2.082zm0 9.93a2.084 2.084 0 01-2.082-2.082c0-1.148.934-2.082 2.082-2.082h6.229a13.558 13.558 0 001.921 4.164h-8.15zm19.379 4.324c-6.623 0-12.012-5.388-12.012-12.012 0-6.623 5.389-12.011 12.012-12.011s12.011 5.388 12.011 12.011c0 6.624-5.388 12.012-12.011 12.012z" fill="#fff"/><path d="M27.383 26.294c-.972 0-1.762-.684-1.762-1.524 0-.841.79-1.525 1.762-1.525.971 0 1.762.684 1.762 1.524a.8.8 0 001.601 0c0-1.467-1.093-2.7-2.562-3.036v-.416a.8.8 0 00-1.602 0v.416c-1.47.335-2.563 1.57-2.563 3.037 0 1.723 1.51 3.126 3.364 3.126.971 0 1.762.684 1.762 1.525 0 .84-.79 1.524-1.762 1.524s-1.762-.683-1.762-1.524a.8.8 0 00-1.601 0c0 1.467 1.093 2.701 2.562 3.036v.346a.8.8 0 001.602 0v-.346c1.469-.335 2.562-1.569 2.562-3.036 0-1.724-1.509-3.127-3.363-3.127zm8.771-4.763a10.434 10.434 0 00-4.262-3.772.8.8 0 10-.694 1.444 8.862 8.862 0 014.997 7.944c0 1.44-.355 2.868-1.027 4.13a.8.8 0 001.414.753 10.43 10.43 0 001.215-4.884c0-1.998-.569-3.94-1.643-5.615zm-7.512-4.795h-.054a.8.8 0 000 1.602h.05a.8.8 0 00.004-1.602zM23.575 35.09a8.862 8.862 0 01-4.997-7.944c0-1.44.355-2.869 1.027-4.13a.8.8 0 00-1.414-.753 10.432 10.432 0 00-1.214 4.883c0 2 .568 3.941 1.643 5.616a10.436 10.436 0 004.261 3.772.798.798 0 001.07-.375.8.8 0 00-.376-1.069zm2.611.865h-.047a.8.8 0 10-.007 1.601h.054a.8.8 0 000-1.601z" fill="#333"/><path d="M31.023 14.027a3.67 3.67 0 00-.356-.654h2.085a3.688 3.688 0 003.683-3.684 3.688 3.688 0 00-3.683-3.683h-6.413a3.66 3.66 0 00.647-2.082A3.688 3.688 0 0023.303.24H3.683A3.688 3.688 0 000 3.924a3.688 3.688 0 003.684 3.683h6.412A3.662 3.662 0 009.45 9.69c0 .773.24 1.49.647 2.082H8.008a3.688 3.688 0 00-3.684 3.684c0 1.167.546 2.208 1.395 2.883a3.677 3.677 0 000 5.765 3.677 3.677 0 000 5.766 3.678 3.678 0 00-1.395 2.883 3.688 3.688 0 003.684 3.683h9.437a13.577 13.577 0 009.942 4.325C34.893 40.76 41 34.653 41 27.147c0-6.248-4.23-11.525-9.977-13.12zm1.729-6.42c1.148 0 2.082.934 2.082 2.082a2.084 2.084 0 01-2.082 2.082H13.133A2.084 2.084 0 0111.05 9.69c0-1.148.934-2.082 2.082-2.082h19.619zM3.684 6.006a2.084 2.084 0 01-2.082-2.082c0-1.148.934-2.082 2.082-2.082h19.619c1.148 0 2.082.934 2.082 2.082a2.084 2.084 0 01-2.082 2.082H3.683zm4.324 7.367h19.619c.323 0 .631.075.908.21a13.571 13.571 0 00-10.782 3.955H8.008a2.084 2.084 0 01-2.082-2.083c0-1.148.934-2.082 2.082-2.082zm0 5.766h8.377a13.575 13.575 0 00-2.058 4.164h-6.32a2.084 2.084 0 01-2.081-2.082c0-1.148.934-2.082 2.082-2.082zm0 5.765h5.951a13.642 13.642 0 00-.05 4.164h-5.9a2.084 2.084 0 01-2.082-2.082c0-1.148.934-2.082 2.082-2.082zm0 9.93a2.084 2.084 0 01-2.082-2.082c0-1.148.934-2.082 2.082-2.082h6.229a13.558 13.558 0 001.921 4.164h-8.15zm19.379 4.324c-6.623 0-12.012-5.388-12.012-12.012 0-6.623 5.389-12.011 12.012-12.011s12.011 5.388 12.011 12.011c0 6.624-5.388 12.012-12.011 12.012z" fill="#333"/></svg>
